release/datafiles/colormanagement/luts/AdobeRGB_to_linear.spi1d
Version 1
From 0.000000 1.000000
Length 4096
Components 1
{
        0.000000000000000
        1.13726972999E-08
        5.22269050841E-08
        1.27396497855E-07
        2.39841925159E-07
        3.91788260927E-07
        5.85043690694E-07
        8.21143264962E-07
        1.10142749166E-06
        1.42709044632E-06
        1.79921154822E-06
        2.21877773549E-06
        2.68669960152E-06
        3.20382353083E-06
        3.77094107304E-06
        4.38879634499E-06
        5.05809198528E-06
        5.77949402076E-06
        6.55363589839E-06
        7.38112186588E-06
        8.26252983589E-06
        9.19841383571E-06
        1.01893061196E-05
        1.12357190039E-05
        1.23381464729E-05
        1.34970655907E-05
        1.47129377524E-05
        1.59862097960E-05
        1.73173149962E-05
        1.87066739572E-05
        2.01546954164E-05
        2.16617769723E-05
        2.32283057445E-05
        2.48546589753E-05
        2.65412045793E-05
        2.82883016462E-05
        3.00963009033E-05
        3.19655451412E-05
        3.38963696067E-05
        3.58891023658E-05
        3.79440646412E-05
        4.00615711250E-05
        4.22419302697E-05
        4.44854445600E-05
        4.67924107663E-05
        4.91631201819E-05
        5.15978588451E-05
        5.40969077480E-05
        5.66605430319E-05
        5.92890361723E-05
        6.19826541521E-05
        6.47416596255E-05
        6.75663110728E-05
        7.04568629466E-05
        7.34135658103E-05
        7.64366664693E-05
        7.95264080953E-05
        8.26830303446E-05
        8.59067694704E-05
        8.91978584292E-05
        9.25565269831E-05
        9.59830017962E-05
        9.94775065270E-05
        0.000103040261917
        0.000106671485874
        0.000110371393554
        0.000114140197437
        0.000117978107400
        0.000121885330790
        0.000125862072491
        0.000129908534985
        0.000134024918421
        0.000138211420669
        0.000142468237379
        0.000146795562040
        0.000151193586026
        0.000155662498654
        0.000160202487228
        0.000164813737091
        0.000169496431667
        0.000174250752505
        0.000179076879325
        0.000183974990056
        0.000188945260877
        0.000193987866254
        0.000199102978978
        0.000204290770200
        0.000209551409468
        0.000214885064756
        0.000220291902500
        0.000225772087629
        0.000231325783593
        0.000236953152394
        0.000242654354618
        0.000248429549454
        0.000254278894730
        0.000260202546933
        0.000266200661238
        0.000272273391530
        0.000278420890429
        0.000284643309312
        0.000290940798339
        0.000297313506468
        0.000303761581486
        0.000310285170019
        0.000316884417560
        0.000323559468487
        0.000330310466080
        0.000337137552538
        0.000344040869005
        0.000351020555577
        0.000358076751329
        0.000365209594323
        0.000372419221633
        0.000379705769352
        0.000387069372614
        0.000394510165608
        0.000402028281591
        0.000409623852902
        0.000417297010979
        0.000425047886370
        0.000432876608748
        0.000440783306923
        0.000448768108855
        0.000456831141669
        0.000464972531663
        0.000473192404321
        0.000481490884329
        0.000489868095580
        0.000498324161189
        0.000506859203505
        0.000515473344117
        0.000524166703869
        0.000532939402868
        0.000541791560496
        0.000550723295415
        0.000559734725584
        0.000568825968262
        0.000577997140019
        0.000587248356748
        0.000596579733669
        0.000605991385341
        0.000615483425671
        0.000625055967918
        0.000634709124707
        0.000644443008033
        0.000654257729268
        0.000664153399174
        0.000674130127904
        0.000684188025015
        0.000694327199472
        0.000704547759655
        0.000714849813368
        0.000725233467845
        0.000735698829755
        0.000746246005211
        0.000756875099777
        0.000767586218472
        0.000778379465775
        0.000789254945638
        0.000800212761483
        0.000811253016216
        0.000822375812228
        0.000833581251399
        0.000844869435112
        0.000856240464250
        0.000867694439204
        0.000879231459881
        0.000890851625705
        0.000902555035627
        0.000914341788125
        0.000926211981213
        0.000938165712444
        0.000950203078915
        0.000962324177272
        0.000974529103715
        0.000986817954002
        0.000999190823454
        0.001011647806958
        0.001024188998976
        0.001036814493542
        0.001049524384272
        0.001062318764368
        0.001075197726618
        0.001088161363404
        0.001101209766705
        0.001114343028098
        0.001127561238768
        0.001140864489506
        0.001154252870716
        0.001167726472418
        0.001181285384249
        0.001194929695472
        0.001208659494975
        0.001222474871276
        0.001236375912528
        0.001250362706519
        0.001264435340678
        0.001278593902077
        0.001292838477435
        0.001307169153123
        0.001321586015162
        0.001336089149230
        0.001350678640667
        0.001365354574471
        0.001380117035309
        0.001394966107515
        0.001409901875094
        0.001424924421725
        0.001440033830764
        0.001455230185248
        0.001470513567894
        0.001485884061105
        0.001501341746974
        0.001516886707283
        0.001532519023505
        0.001548238776812
        0.001564046048073
        0.001579940917857
        0.001595923466437
        0.001611993773791
        0.001628151919607
        0.001644397983281
        0.001660732043923
        0.001677154180358
        0.001693664471129
        0.001710262994498
        0.001726949828449
        0.001743725050690
        0.001760588738656
        0.001777540969511
        0.001794581820148
        0.001811711367193
        0.001828929687008
        0.001846236855692
        0.001863632949082
        0.001881118042755
        0.001898692212032
        0.001916355531980
        0.001934108077412
        0.001951949922888
        0.001969881142720
        0.001987901810973
        0.002006012001466
        0.002024211787773
        0.002042501243228
        0.002060880440922
        0.002079349453710
        0.002097908354209
        0.002116557214802
        0.002135296107636
        0.002154125104629
        0.002173044277469
        0.002192053697614
        0.002211153436296
        0.002230343564523
        0.002249624153078
        0.002268995272522
        0.002288456993196
        0.002308009385224
        0.002327652518509
        0.002347386462742
        0.002367211287397
        0.002387127061737
        0.002407133854811
        0.002427231735461
        0.002447420772320
        0.002467701033812
        0.002488072588156
        0.002508535503369
        0.002529089847262
        0.002549735687447
        0.002570473091333
        0.002591302126133
        0.002612222858860
        0.002633235356332
        0.002654339685172
        0.002675535911808
        0.002696824102479
        0.002718204323228
        0.002739676639911
        0.002761241118196
        0.002782897823560
        0.002804646821297
        0.002826488176515
        0.002848421954136
        0.002870448218903
        0.002892567035374
        0.002914778467927
        0.002937082580763
        0.002959479437902
        0.002981969103188
        0.003004551640288
        0.003027227112697
        0.003049995583733
        0.003072857116542
        0.003095811774098
        0.003118859619205
        0.003142000714497
        0.003165235122441
        0.003188562905332
        0.003211984125303
        0.003235498844319
        0.003259107124181
        0.003282809026526
        0.003306604612828
        0.003330493944401
        0.003354477082397
        0.003378554087807
        0.003402725021465
        0.003426989944046
        0.003451348916070
        0.003475801997897
        0.003500349249735
        0.003524990731637
        0.003549726503501
        0.003574556625075
        0.003599481155954
        0.003624500155581
        0.003649613683250
        0.003674821798108
        0.003700124559150
        0.003725522025225
        0.003751014255037
        0.003776601307142
        0.003802283239952
        0.003828060111735
        0.003853931980615
        0.003879898904574
        0.003905960941451
        0.003932118148946
        0.003958370584616
        0.003984718305882
        0.004011161370023
        0.004037699834181
        0.004064333755362
        0.004091063190434
        0.004117888196130
        0.004144808829048
        0.004171825145651
        0.004198937202269
        0.004226145055098
        0.004253448760204
        0.004280848373520
        0.004308343950847
        0.004335935547859
        0.004363623220097
        0.004391407022977
        0.004419287011783
        0.004447263241675
        0.004475335767683
        0.004503504644715
        0.004531769927549
        0.004560131670841
        0.004588589929121
        0.004617144756799
        0.004645796208157
        0.004674544337359
        0.004703389198444
        0.004732330845333
        0.004761369331824
        0.004790504711596
        0.004819737038209
        0.004849066365105
        0.004878492745607
        0.004908016232919
        0.004937636880131
        0.004967354740216
        0.004997169866029
        0.005027082310311
        0.005057092125691
        0.005087199364679
        0.005117404079676
        0.005147706322967
        0.005178106146727
        0.005208603603016
        0.005239198743785
        0.005269891620875
        0.005300682286013
        0.005331570790821
        0.005362557186807
        0.005393641525374
        0.005424823857815
        0.005456104235316
        0.005487482708956
        0.005518959329705
        0.005550534148430
        0.005582207215891
        0.005613978582743
        0.005645848299534
        0.005677816416713
        0.005709882984619
        0.005742048053493
        0.005774311673471
        0.005806673894585
        0.005839134766768
        0.005871694339851
        0.005904352663563
        0.005937109787533
        0.005969965761290
        0.006002920634264
        0.006035974455785
        0.006069127275085
        0.006102379141298
        0.006135730103460
        0.006169180210508
        0.006202729511285
        0.006236378054535
        0.006270125888909
        0.006303973062958
        0.006337919625141
        0.006371965623822
        0.006406111107270
        0.006440356123659
        0.006474700721072
        0.006509144947497
        0.006543688850830
        0.006578332478873
        0.006613075879338
        0.006647919099846
        0.006682862187924
        0.006717905191012
        0.006753048156456
        0.006788291131514
        0.006823634163354
        0.006859077299056
        0.006894620585609
        0.006930264069915
        0.006966007798787
        0.007001851818951
        0.007037796177045
        0.007073840919622
        0.007109986093145
        0.007146231743994
        0.007182577918462
        0.007219024662754
        0.007255572022994
        0.007292220045218
        0.007328968775380
        0.007365818259348
        0.007402768542906
        0.007439819671756
        0.007476971691517
        0.007514224647723
        0.007551578585828
        0.007589033551202
        0.007626589589136
        0.007664246744836
        0.007702005063430
        0.007739864589964
        0.007777825369402
        0.007815887446631
        0.007854050866455
        0.007892315673601
        0.007930681912716
        0.007969149628368
        0.008007718865046
        0.008046389667162
        0.008085162079049
        0.008124036144962
        0.008163011909081
        0.008202089415506
        0.008241268708262
        0.008280549831299
        0.008319932828486
        0.008359417743622
        0.008399004620428
        0.008438693502547
        0.008478484433552
        0.008518377456939
        0.008558372616128
        0.008598469954469
        0.008638669515234
        0.008678971341623
        0.008719375476765
        0.008759881963713
        0.008800490845448
        0.008841202164880
        0.008882015964845
        0.008922932288109
        0.008963951177365
        0.009005072675235
        0.009046296824271
        0.009087623666952
        0.009129053245689
        0.009170585602821
        0.009212220780618
        0.009253958821279
        0.009295799766935
        0.009337743659647
        0.009379790541407
        0.009421940454140
        0.009464193439698
        0.009506549539871
        0.009549008796376
        0.009591571250865
        0.009634236944920
        0.009677005920060
        0.009719878217733
        0.009762853879322
        0.009805932946143
        0.009849115459446
        0.009892401460416
        0.009935790990170
        0.009979284089762
        0.010022880800178
        0.010066581162342
        0.010110385217109
        0.010154293005274
        0.010198304567565
        0.010242419944646
        0.010286639177118
        0.010330962305517
        0.010375389370317
        0.010419920411927
        0.010464555470695
        0.010509294586904
        0.010554137800777
        0.010599085152472
        0.010644136682086
        0.010689292429655
        0.010734552435152
        0.010779916738489
        0.010825385379517
        0.010870958398024
        0.010916635833740
        0.010962417726332
        0.011008304115408
        0.011054295040515
        0.011100390541140
        0.011146590656711
        0.011192895426595
        0.011239304890101
        0.011285819086478
        0.011332438054915
        0.011379161834544
        0.011425990464437
        0.011472923983609
        0.011519962431014
        0.011567105845552
        0.011614354266062
        0.011661707731326
        0.011709166280069
        0.011756729950958
        0.011804398782605
        0.011852172813562
        0.011900052082326
        0.011948036627338
        0.011996126486982
        0.012044321699585
        0.012092622303419
        0.012141028336701
        0.012189539837590
        0.012238156844193
        0.012286879394558
        0.012335707526681
        0.012384641278501
        0.012433680687903
        0.012482825792719
        0.012532076630724
        0.012581433239641
        0.012630895657137
        0.012680463920828
        0.012730138068273
        0.012779918136980
        0.012829804164402
        0.012879796187941
        0.012929894244944
        0.012980098372706
        0.013030408608469
        0.013080824989424
        0.013131347552707
        0.013181976335405
        0.013232711374550
        0.013283552707124
        0.013334500370057
        0.013385554400228
        0.013436714834463
        0.013487981709540
        0.013539355062182
        0.013590834929064
        0.013642421346809
        0.013694114351991
        0.013745913981132
        0.013797820270704
        0.013849833257129
        0.013901952976780
        0.013954179465979
        0.014006512761000
        0.014058952898067
        0.014111499913352
        0.014164153842982
        0.014216914723032
        0.014269782589530
        0.014322757478455
        0.014375839425735
        0.014429028467254
        0.014482324638845
        0.014535727976291
        0.014589238515332
        0.014642856291656
        0.014696581340905
        0.014750413698674
        0.014804353400508
        0.014858400481909
        0.014912554978327
        0.014966816925170
        0.015021186357795
        0.015075663311514
        0.015130247821592
        0.015184939923250
        0.015239739651659
        0.015294647041947
        0.015349662129192
        0.015404784948432
        0.015460015534653
        0.015515353922801
        0.015570800147772
        0.015626354244419
        0.015682016247549
        0.015737786191926
        0.015793664112265
        0.015849650043240
        0.015905744019479
        0.015961946075564
        0.016018256246035
        0.016074674565387
        0.016131201068069
        0.016187835788487
        0.016244578761006
        0.016301430019942
        0.016358389599572
        0.016415457534126
        0.016472633857792
        0.016529918604716
        0.016587311808999
        0.016644813504700
        0.016702423725833
        0.016760142506372
        0.016817969880248
        0.016875905881347
        0.016933950543515
        0.016992103900554
        0.017050365986226
        0.017108736834248
        0.017167216478297
        0.017225804952009
        0.017284502288975
        0.017343308522747
        0.017402223686836
        0.017461247814710
        0.017520380939795
        0.017579623095478
        0.017638974315104
        0.017698434631977
        0.017758004079360
        0.017817682690476
        0.017877470498507
        0.017937367536594
        0.017997373837838
        0.018057489435301
        0.018117714362002
        0.018178048650923
        0.018238492335005
        0.018299045447147
        0.018359708020212
        0.018420480087021
        0.018481361680356
        0.018542352832960
        0.018603453577536
        0.018664663946749
        0.018725983973223
        0.018787413689545
        0.018848953128262
        0.018910602321883
        0.018972361302878
        0.019034230103677
        0.019096208756674
        0.019158297294224
        0.019220495748642
        0.019282804152207
        0.019345222537159
        0.019407750935701
        0.019470389379995
        0.019533137902170
        0.019595996534313
        0.019658965308477
        0.019722044256675
        0.019785233410884
        0.019848532803043
        0.019911942465055
        0.019975462428784
        0.020039092726058
        0.020102833388670
        0.020166684448373
        0.020230645936885
        0.020294717885888
        0.020358900327027
        0.020423193291909
        0.020487596812108
        0.020552110919158
        0.020616735644560
        0.020681471019778
        0.020746317076239
        0.020811273845335
        0.020876341358424
        0.020941519646825
        0.021006808741823
        0.021072208674669
        0.021137719476576
        0.021203341178723
        0.021269073812255
        0.021334917408280
        0.021400871997871
        0.021466937612068
        0.021533114281874
        0.021599402038258
        0.021665800912155
        0.021732310934465
        0.021798932136053
        0.021865664547751
        0.021932508200354
        0.021999463124625
        0.022066529351293
        0.022133706911052
        0.022200995834562
        0.022268396152450
        0.022335907895308
        0.022403531093694
        0.022471265778135
        0.022539111979122
        0.022607069727112
        0.022675139052531
        0.022743319985770
        0.022811612557188
        0.022880016797109
        0.022948532735825
        0.023017160403596
        0.023085899830648
        0.023154751047173
        0.023223714083333
        0.023292788969256
        0.023361975735036
        0.023431274410736
        0.023500685026388
        0.023570207611988
        0.023639842197503
        0.023709588812866
        0.023779447487979
        0.023849418252711
        0.023919501136899
        0.023989696170350
        0.024060003382836
        0.024130422804100
        0.024200954463853
        0.024271598391773
        0.024342354617507
        0.024413223170671
        0.024484204080850
        0.024555297377597
        0.024626503090434
        0.024697821248852
        0.024769251882311
        0.024840795020240
        0.024912450692036
        0.024984218927066
        0.025056099754668
        0.025128093204147
        0.025200199304777
        0.025272418085803
        0.025344749576440
        0.025417193805870
        0.025489750803248
        0.025562420597696
        0.025635203218306
        0.025708098694143
        0.025781107054237
        0.025854228327592
        0.025927462543181
        0.026000809729947
        0.026074269916802
        0.026147843132630
        0.026221529406285
        0.026295328766591
        0.026369241242343
        0.026443266862306
        0.026517405655216
        0.026591657649779
        0.026666022874673
        0.026740501358547
        0.026815093130018
        0.026889798217678
        0.026964616650088
        0.027039548455779
        0.027114593663255
        0.027189752300991
        0.027265024397432
        0.027340409980996
        0.027415909080072
        0.027491521723019
        0.027567247938170
        0.027643087753828
        0.027719041198267
        0.027795108299736
        0.027871289086451
        0.027947583586604
        0.028023991828358
        0.028100513839846
        0.028177149649175
        0.028253899284423
        0.028330762773643
        0.028407740144855
        0.028484831426056
        0.028562036645214
        0.028639355830269
        0.028716789009133
        0.028794336209691
        0.028871997459802
        0.028949772787295
        0.029027662219975
        0.029105665785616
        0.029183783511969
        0.029262015426753
        0.029340361557666
        0.029418821932374
        0.029497396578517
        0.029576085523711
        0.029654888795542
        0.029733806421571
        0.029812838429332
        0.029891984846332
        0.029971245700051
        0.030050621017944
        0.030130110827439
        0.030209715155936
        0.030289434030812
        0.030369267479413
        0.030449215529064
        0.030529278207061
        0.030609455540673
        0.030689747557144
        0.030770154283694
        0.030850675747515
        0.030931311975772
        0.031012062995607
        0.031092928834133
        0.031173909518441
        0.031255005075594
        0.031336215532629
        0.031417540916559
        0.031498981254371
        0.031580536573026
        0.031662206899459
        0.031743992260583
        0.031825892683281
        0.031907908194414
        0.031990038820817
        0.032072284589299
        0.032154645526646
        0.032237121659618
        0.032319713014948
        0.032402419619347
        0.032485241499500
        0.032568178682068
        0.032651231193684
        0.032734399060961
        0.032817682310484
        0.032901080968815
        0.032984595062490
        0.033068224618023
        0.033151969661900
        0.033235830220587
        0.033319806320521
        0.033403897988118
        0.033488105249769
        0.033572428131839
        0.033656866660672
        0.033741420862586
        0.033826090763875
        0.033910876390808
        0.033995777769633
        0.034080794926572
        0.034165927887823
        0.034251176679561
        0.034336541327936
        0.034422021859077
        0.034507618299086
        0.034593330674044
        0.034679159010008
        0.034765103333009
        0.034851163669057
        0.034937340044140
        0.035023632484218
        0.035110041015231
        0.035196565663097
        0.035283206453706
        0.035369963412930
        0.035456836566614
        0.035543825940581
        0.035630931560634
        0.035718153452547
        0.035805491642077
        0.035892946154955
        0.035980517016889
        0.036068204253564
        0.036156007890646
        0.036243927953772
        0.036331964468562
        0.036420117460610
        0.036508386955489
        0.036596772978748
        0.036685275555916
        0.036773894712497
        0.036862630473973
        0.036951482865805
        0.037040451913430
        0.037129537642265
        0.037218740077703
        0.037308059245114
        0.037397495169848
