release/datafiles/colormanagement/luts/JPLog_to_linear.spi1d
Version 1
From 0.0000 4.0000
Length 4096
Components 1
{
            5.914787846E-3
            5.960360187E-3
            6.006283654E-3
            6.052560953E-3
            6.099194811E-3
            6.146187973E-3
            6.193543209E-3
            6.241263308E-3
            6.289351082E-3
            6.337809363E-3
            6.386641006E-3
            6.435848888E-3
            6.485435908E-3
            6.535404986E-3
            6.585759067E-3
            6.636501116E-3
            6.687634124E-3
            6.739161102E-3
            6.791085085E-3
            6.843409134E-3
            6.896136329E-3
            6.949269778E-3
            7.002812610E-3
            7.056767979E-3
            7.111139065E-3
            7.165929070E-3
            7.221141222E-3
            7.276778773E-3
            7.332845000E-3
            7.389343208E-3
            7.446276724E-3
            7.503648902E-3
            7.561463123E-3
            7.619722791E-3
            7.678431338E-3
            7.737592225E-3
            7.797208935E-3
            7.857284980E-3
            7.917823901E-3
            7.978829262E-3
            8.040304659E-3
            8.102253712E-3
            8.164680071E-3
            8.227587413E-3
            8.290979445E-3
            8.354859901E-3
            8.419232543E-3
            8.484101165E-3
            8.549469588E-3
            8.615341662E-3
            8.681721268E-3
            8.748612317E-3
            8.816018749E-3
            8.883944535E-3
            8.952393676E-3
            9.021370205E-3
            9.090878186E-3
            9.160921713E-3
            9.231504912E-3
            9.302631941E-3
            9.374306991E-3
            9.446534284E-3
            9.519318075E-3
            9.592662652E-3
            9.666572335E-3
            9.741051478E-3
            9.816104469E-3
            9.891735729E-3
            9.967949715E-3
            1.004475091E-2
            1.012214385E-2
            1.020013309E-2
            1.027872322E-2
            1.035791887E-2
            1.043772471E-2
            1.051814544E-2
            1.059918580E-2
            1.068085055E-2
            1.076314452E-2
            1.084607255E-2
            1.092963952E-2
            1.101385036E-2
            1.109871003E-2
            1.118422353E-2
            1.127039590E-2
            1.135723220E-2
            1.144473756E-2
            1.153291714E-2
            1.162177612E-2
            1.171131975E-2
            1.180155329E-2
            1.189248206E-2
            1.198411143E-2
            1.207644678E-2
            1.216949356E-2
            1.226325724E-2
            1.235774336E-2
            1.245295748E-2
            1.254890520E-2
            1.264559218E-2
            1.274302412E-2
            1.284120675E-2
            1.294014586E-2
            1.303984728E-2
            1.314031688E-2
            1.324156058E-2
            1.334358434E-2
            1.344639418E-2
            1.354999615E-2
            1.365439635E-2
            1.375960094E-2
            1.386561610E-2
            1.397244810E-2
            1.408010321E-2
            1.418858779E-2
            1.429790823E-2
            1.440807095E-2
            1.451908246E-2
            1.463094929E-2
            1.474367804E-2
            1.485727533E-2
            1.497174788E-2
            1.508710241E-2
            1.520334573E-2
            1.532048469E-2
            1.543852617E-2
            1.555747715E-2
            1.567734462E-2
            1.579813565E-2
            1.591985734E-2
            1.604251689E-2
            1.616612150E-2
            1.629067846E-2
            1.641619511E-2
            1.654267884E-2
            1.667013711E-2
            1.679857741E-2
            1.692800733E-2
            1.705843448E-2
            1.718986655E-2
            1.732231128E-2
            1.745577646E-2
            1.759026998E-2
            1.772579974E-2
            1.786237373E-2
            1.800000000E-2
            1.813868665E-2
            1.827844186E-2
            1.841927386E-2
            1.856119094E-2
            1.870420147E-2
            1.884831386E-2
            1.899353662E-2
            1.913987829E-2
            1.928734749E-2
            1.943595292E-2
            1.958570333E-2
            1.973660753E-2
            1.988867442E-2
            2.004191296E-2
            2.019633218E-2
            2.035194116E-2
            2.050874909E-2
            2.066676519E-2
            2.082599877E-2
            2.098645922E-2
            2.114815599E-2
            2.131109860E-2
            2.147529665E-2
            2.164075982E-2
            2.180749786E-2
            2.197552057E-2
            2.214483787E-2
            2.231545973E-2
            2.248739620E-2
            2.266065741E-2
            2.283525357E-2
            2.301119495E-2
            2.318849193E-2
            2.336715495E-2
            2.354719454E-2
            2.372862129E-2
            2.391144591E-2
            2.409567916E-2
            2.428133189E-2
            2.446841504E-2
            2.465693963E-2
            2.484691676E-2
            2.503835764E-2
            2.523127353E-2
            2.542567580E-2
            2.562157591E-2
            2.581898539E-2
            2.601791587E-2
            2.621837908E-2
            2.642038682E-2
            2.662395099E-2
            2.682908358E-2
            2.703579668E-2
            2.724410247E-2
            2.745401322E-2
            2.766554129E-2
            2.787869914E-2
            2.809349934E-2
            2.830995453E-2
            2.852807746E-2
            2.874788100E-2
            2.896937808E-2
            2.919258175E-2
            2.941750517E-2
            2.964416158E-2
            2.987256433E-2
            3.010272689E-2
            3.033466281E-2
            3.056838574E-2
            3.080390947E-2
            3.104124787E-2
            3.128041492E-2
            3.152142470E-2
            3.176429142E-2
            3.200902938E-2
            3.225565300E-2
            3.250417681E-2
            3.275461545E-2
            3.300698368E-2
            3.326129635E-2
            3.351756846E-2
            3.377581510E-2
            3.403605147E-2
            3.429829292E-2
            3.456255490E-2
            3.482885296E-2
            3.509720280E-2
            3.536762022E-2
            3.564012116E-2
            3.591472167E-2
            3.619143792E-2
            3.647028623E-2
            3.675128300E-2
            3.703444481E-2
            3.731978832E-2
            3.760733036E-2
            3.789708785E-2
            3.818907786E-2
            3.848331761E-2
            3.877982442E-2
            3.907861576E-2
            3.937970923E-2
            3.968312257E-2
            3.998887366E-2
            4.029698049E-2
            4.060746124E-2
            4.092033418E-2
            4.123561775E-2
            4.155333052E-2
            4.187349121E-2
            4.219611868E-2
            4.252123193E-2
            4.284885012E-2
            4.317899254E-2
            4.351167865E-2
            4.384692805E-2
            4.418476048E-2
            4.452519585E-2
            4.486825421E-2
            4.521395577E-2
            4.556232089E-2
            4.591337011E-2
            4.626712409E-2
            4.662360368E-2
            4.698282988E-2
            4.734482385E-2
            4.770960692E-2
            4.807720058E-2
            4.844762647E-2
            4.882090643E-2
            4.919706244E-2
            4.957611666E-2
            4.995809142E-2
            5.034300923E-2
            5.073089276E-2
            5.112176486E-2
            5.151564856E-2
            5.191256706E-2
            5.231254374E-2
            5.271560216E-2
            5.312176608E-2
            5.353105941E-2
            5.394350628E-2
            5.435913097E-2
            5.477795797E-2
            5.520001195E-2
            5.562531779E-2
            5.605390052E-2
            5.648578541E-2
            5.692099788E-2
            5.735956359E-2
            5.780150837E-2
            5.824685825E-2
            5.869563946E-2
            5.914787846E-2
            5.960360187E-2
            6.006283654E-2
            6.052560953E-2
            6.099194811E-2
            6.146187973E-2
            6.193543209E-2
            6.241263308E-2
            6.289351082E-2
            6.337809363E-2
            6.386641006E-2
            6.435848888E-2
            6.485435908E-2
            6.535404986E-2
            6.585759067E-2
            6.636501116E-2
            6.687634124E-2
            6.739161102E-2
            6.791085085E-2
            6.843409134E-2
            6.896136329E-2
            6.949269778E-2
            7.002812610E-2
            7.056767979E-2
            7.111139065E-2
            7.165929070E-2
            7.221141222E-2
            7.276778773E-2
            7.332845000E-2
            7.389343208E-2
            7.446276724E-2
            7.503648902E-2
            7.561463123E-2
            7.619722791E-2
            7.678431338E-2
            7.737592225E-2
            7.797208935E-2
            7.857284980E-2
            7.917823901E-2
            7.978829262E-2
            8.040304659E-2
            8.102253712E-2
            8.164680071E-2
            8.227587413E-2
            8.290979445E-2
            8.354859901E-2
            8.419232543E-2
            8.484101165E-2
            8.549469588E-2
            8.615341662E-2
            8.681721268E-2
            8.748612317E-2
            8.816018749E-2
            8.883944535E-2
            8.952393676E-2
            9.021370205E-2
            9.090878186E-2
            9.160921713E-2
            9.231504912E-2
            9.302631941E-2
            9.374306991E-2
            9.446534284E-2
            9.519318075E-2
            9.592662652E-2
            9.666572335E-2
            9.741051478E-2
            9.816104469E-2
            9.891735729E-2
            9.967949715E-2
            1.004475091E-1
            1.012214385E-1
            1.020013309E-1
            1.027872322E-1
            1.035791887E-1
            1.043772471E-1
            1.051814544E-1
            1.059918580E-1
            1.068085055E-1
            1.076314452E-1
            1.084607255E-1
            1.092963952E-1
            1.101385036E-1
            1.109871003E-1
            1.118422353E-1
            1.127039590E-1
            1.135723220E-1
            1.144473756E-1
            1.153291714E-1
            1.162177612E-1
            1.171131975E-1
            1.180155329E-1
            1.189248206E-1
            1.198411143E-1
            1.207644678E-1
            1.216949356E-1
            1.226325724E-1
            1.235774336E-1
            1.245295748E-1
            1.254890520E-1
            1.264559218E-1
            1.274302412E-1
            1.284120675E-1
            1.294014586E-1
            1.303984728E-1
            1.314031688E-1
            1.324156058E-1
            1.334358434E-1
            1.344639418E-1
            1.354999615E-1
            1.365439635E-1
            1.375960094E-1
            1.386561610E-1
            1.397244810E-1
            1.408010321E-1
            1.418858779E-1
            1.429790823E-1
            1.440807095E-1
            1.451908246E-1
            1.463094929E-1
            1.474367804E-1
            1.485727533E-1
            1.497174788E-1
            1.508710241E-1
            1.520334573E-1
            1.532048469E-1
            1.543852617E-1
            1.555747715E-1
            1.567734462E-1
            1.579813565E-1
            1.591985734E-1
            1.604251689E-1
            1.616612150E-1
            1.629067846E-1
            1.641619511E-1
            1.654267884E-1
            1.667013711E-1
            1.679857741E-1
            1.692800733E-1
            1.705843448E-1
            1.718986655E-1
            1.732231128E-1
            1.745577646E-1
            1.759026998E-1
            1.772579974E-1
            1.786237373E-1
            1.800000000E-1
            1.813868665E-1
            1.827844186E-1
            1.841927386E-1
            1.856119094E-1
            1.870420147E-1
            1.884831386E-1
            1.899353662E-1
            1.913987829E-1
            1.928734749E-1
            1.943595292E-1
            1.958570333E-1
            1.973660753E-1
            1.988867442E-1
            2.004191296E-1
            2.019633218E-1
            2.035194116E-1
            2.050874909E-1
            2.066676519E-1
            2.082599877E-1
            2.098645922E-1
            2.114815599E-1
            2.131109860E-1
            2.147529665E-1
            2.164075982E-1
            2.180749786E-1
            2.197552057E-1
            2.214483787E-1
            2.231545973E-1
            2.248739620E-1
            2.266065741E-1
            2.283525357E-1
            2.301119495E-1
            2.318849193E-1
            2.336715495E-1
            2.354719454E-1
            2.372862129E-1
            2.391144591E-1
            2.409567916E-1
            2.428133189E-1
            2.446841504E-1
            2.465693963E-1
            2.484691676E-1
            2.503835764E-1
            2.523127353E-1
            2.542567580E-1
            2.562157591E-1
            2.581898539E-1
            2.601791587E-1
            2.621837908E-1
            2.642038682E-1
            2.662395099E-1
            2.682908358E-1
            2.703579668E-1
            2.724410247E-1
            2.745401322E-1
            2.766554129E-1
            2.787869914E-1
            2.809349934E-1
            2.830995453E-1
            2.852807746E-1
            2.874788100E-1
            2.896937808E-1
            2.919258175E-1
            2.941750517E-1
            2.964416158E-1
            2.987256433E-1
            3.010272689E-1
            3.033466281E-1
            3.056838574E-1
            3.080390947E-1
            3.104124787E-1
            3.128041492E-1
            3.152142470E-1
            3.176429142E-1
            3.200902938E-1
            3.225565300E-1
            3.250417681E-1
            3.275461545E-1
            3.300698368E-1
            3.326129635E-1
            3.351756846E-1
            3.377581510E-1
            3.403605147E-1
            3.429829292E-1
            3.456255490E-1
            3.482885296E-1
            3.509720280E-1
            3.536762022E-1
            3.564012116E-1
            3.591472167E-1
            3.619143792E-1
            3.647028623E-1
            3.675128300E-1
            3.703444481E-1
            3.731978832E-1
            3.760733036E-1
            3.789708785E-1
            3.818907786E-1
            3.848331761E-1
            3.877982442E-1
            3.907861576E-1
            3.937970923E-1
            3.968312257E-1
            3.998887366E-1
            4.029698049E-1
            4.060746124E-1
            4.092033418E-1
            4.123561775E-1
            4.155333052E-1
            4.187349121E-1
            4.219611868E-1
            4.252123193E-1
            4.284885012E-1
            4.317899254E-1
            4.351167865E-1
            4.384692805E-1
            4.418476048E-1
            4.452519585E-1
            4.486825421E-1
            4.521395577E-1
            4.556232089E-1
            4.591337011E-1
            4.626712409E-1
            4.662360368E-1
            4.698282988E-1
            4.734482385E-1
            4.770960692E-1
            4.807720058E-1
            4.844762647E-1
            4.882090643E-1
            4.919706244E-1
            4.957611666E-1
            4.995809142E-1
            5.034300923E-1
            5.073089276E-1
            5.112176486E-1
            5.151564856E-1
            5.191256706E-1
            5.231254374E-1
            5.271560216E-1
            5.312176608E-1
            5.353105941E-1
            5.394350628E-1
            5.435913097E-1
            5.477795797E-1
            5.520001195E-1
            5.562531779E-1
            5.605390052E-1
            5.648578541E-1
            5.692099788E-1
            5.735956359E-1
            5.780150837E-1
            5.824685825E-1
            5.869563946E-1
            5.914787846E-1
            5.960360187E-1
            6.006283654E-1
            6.052560953E-1
            6.099194811E-1
            6.146187973E-1
            6.193543209E-1
            6.241263308E-1
            6.289351082E-1
            6.337809363E-1
            6.386641006E-1
            6.435848888E-1
            6.485435908E-1
            6.535404986E-1
            6.585759067E-1
            6.636501116E-1
            6.687634124E-1
            6.739161102E-1
            6.791085085E-1
            6.843409134E-1
            6.896136329E-1
            6.949269778E-1
            7.002812610E-1
            7.056767979E-1
            7.111139065E-1
            7.165929070E-1
            7.221141222E-1
            7.276778773E-1
            7.332845000E-1
            7.389343208E-1
            7.446276724E-1
            7.503648902E-1
            7.561463123E-1
            7.619722791E-1
            7.678431338E-1
            7.737592225E-1
            7.797208935E-1
            7.857284980E-1
            7.917823901E-1
            7.978829262E-1
            8.040304659E-1
            8.102253712E-1
            8.164680071E-1
            8.227587413E-1
            8.290979445E-1
            8.354859901E-1
            8.419232543E-1
            8.484101165E-1
            8.549469588E-1
            8.615341662E-1
            8.681721268E-1
            8.748612317E-1
            8.816018749E-1
            8.883944535E-1
            8.952393676E-1
            9.021370205E-1
            9.090878186E-1
            9.160921713E-1
            9.231504912E-1
            9.302631941E-1
            9.374306991E-1
            9.446534284E-1
            9.519318075E-1
            9.592662652E-1
            9.666572335E-1
            9.741051478E-1
            9.816104469E-1
            9.891735729E-1
            9.967949715E-1
            1.004475091E+0
            1.012214385E+0
            1.020013309E+0
            1.027872322E+0
            1.035791887E+0
            1.043772471E+0
            1.051814544E+0
            1.059918580E+0
            1.068085055E+0
            1.076314452E+0
            1.084607255E+0
            1.092963952E+0
            1.101385036E+0
            1.109871003E+0
            1.118422353E+0
            1.127039590E+0
            1.135723220E+0
            1.144473756E+0
            1.153291714E+0
            1.162177612E+0
            1.171131975E+0
            1.180155329E+0
            1.189248206E+0
            1.198411143E+0
            1.207644678E+0
            1.216949356E+0
            1.226325724E+0
            1.235774336E+0
            1.245295748E+0
            1.254890520E+0
            1.264559218E+0
            1.274302412E+0
            1.284120675E+0
            1.294014586E+0
            1.303984728E+0
            1.314031688E+0
            1.324156058E+0
            1.334358434E+0
            1.344639418E+0
            1.354999615E+0
            1.365439635E+0
            1.375960094E+0
            1.386561610E+0
            1.397244810E+0
            1.408010321E+0
            1.418858779E+0
            1.429790823E+0
            1.440807095E+0
            1.451908246E+0
            1.463094929E+0
            1.474367804E+0
            1.485727533E+0
            1.497174788E+0
            1.508710241E+0
            1.520334573E+0
            1.532048469E+0
            1.543852617E+0
            1.555747715E+0
            1.567734462E+0
            1.579813565E+0
            1.591985734E+0
            1.604251689E+0
            1.616612150E+0
            1.629067846E+0
            1.641619511E+0
            1.654267884E+0
            1.667013711E+0
            1.679857741E+0
            1.692800733E+0
            1.705843448E+0
            1.718986655E+0
            1.732231128E+0
            1.745577646E+0
            1.759026998E+0
            1.772579974E+0
            1.786237373E+0
            1.800000000E+0
            1.813868665E+0
            1.827844186E+0
            1.841927386E+0
            1.856119094E+0
            1.870420147E+0
            1.884831386E+0
            1.899353662E+0
            1.913987829E+0
            1.928734749E+0
            1.943595292E+0
            1.958570333E+0
            1.973660753E+0
            1.988867442E+0
            2.004191296E+0
            2.019633218E+0
            2.035194116E+0
            2.050874909E+0
            2.066676519E+0
            2.082599877E+0
            2.098645922E+0
            2.114815599E+0
            2.131109860E+0
            2.147529665E+0
            2.164075982E+0
            2.180749786E+0
            2.197552057E+0
            2.214483787E+0
            2.231545973E+0
            2.248739620E+0
            2.266065741E+0
            2.283525357E+0
            2.301119495E+0
            2.318849193E+0
            2.336715495E+0
            2.354719454E+0
            2.372862129E+0
            2.391144591E+0
            2.409567916E+0
            2.428133189E+0
            2.446841504E+0
            2.465693963E+0
            2.484691676E+0
            2.503835764E+0
            2.523127353E+0
            2.542567580E+0
            2.562157591E+0
            2.581898539E+0
            2.601791587E+0
            2.621837908E+0
            2.642038682E+0
            2.662395099E+0
            2.682908358E+0
            2.703579668E+0
            2.724410247E+0
            2.745401322E+0
            2.766554129E+0
            2.787869914E+0
            2.809349934E+0
            2.830995453E+0
            2.852807746E+0
            2.874788100E+0
            2.896937808E+0
            2.919258175E+0
            2.941750517E+0
            2.964416158E+0
            2.987256433E+0
            3.010272689E+0
            3.033466281E+0
            3.056838574E+0
            3.080390947E+0
            3.104124787E+0
            3.128041492E+0
            3.152142470E+0
            3.176429142E+0
            3.200902938E+0
            3.225565300E+0
            3.250417681E+0
            3.275461545E+0
            3.300698368E+0
            3.326129635E+0
            3.351756846E+0
            3.377581510E+0
            3.403605147E+0
            3.429829292E+0
            3.456255490E+0
            3.482885296E+0
            3.509720280E+0
            3.536762022E+0
            3.564012116E+0
            3.591472167E+0
            3.619143792E+0
            3.647028623E+0
            3.675128300E+0
            3.703444481E+0
            3.731978832E+0
            3.760733036E+0
            3.789708785E+0
            3.818907786E+0
            3.848331761E+0
            3.877982442E+0
            3.907861576E+0
            3.937970923E+0
            3.968312257E+0
            3.998887366E+0
            4.029698049E+0
            4.060746124E+0
            4.092033418E+0
            4.123561775E+0
            4.155333052E+0
            4.187349121E+0
            4.219611868E+0
            4.252123193E+0
            4.284885012E+0
            4.317899254E+0
            4.351167865E+0
            4.384692805E+0
            4.418476048E+0
            4.452519585E+0
            4.486825421E+0
            4.521395577E+0
            4.556232089E+0
            4.591337011E+0
            4.626712409E+0
            4.662360368E+0
            4.698282988E+0
            4.734482385E+0
            4.770960692E+0
            4.807720058E+0
            4.844762647E+0
            4.882090643E+0
            4.919706244E+0
            4.957611666E+0
            4.995809142E+0
            5.034300923E+0
            5.073089276E+0
            5.112176486E+0
            5.151564856E+0
            5.191256706E+0
            5.231254374E+0
            5.271560216E+0
